public/icons/phone.svg

<svg width="24" height="25" viewBox="0 0 24 25" fill="none" xmlns="http://www.w3.org/2000/svg">
<path d="M20.4824 19.9884L20 20.4708C18.51 21.9608 13.0001 22.4709 7.5001 16.9709C2.0001 11.4709 2.5 5.97079 4 4.47079L4.49106 3.97974C5.27193 3.19886 6.57153 3.32806 7.18411 4.2469L9.20426 7.27706C9.66701 7.97116 9.57548 8.8954 8.9856 9.48526L7.93706 10.5338C7.66921 10.8016 7.57949 11.1969 7.75432 11.5329C8.07303 12.1455 8.73784 13.2086 10.0001 14.4709C11.2623 15.7331 12.3254 16.3979 12.9379 16.7166C13.2739 16.8914 13.6692 16.8017 13.937 16.5339L14.9856 15.4853C15.5754 14.8955 16.4996 14.804 17.1937 15.2667L20.2137 17.2799C21.1378 17.896 21.2677 19.2031 20.4824 19.9884Z" fill="#736AE4" fill-opacity="0.25"/>
<path fill-rule="evenodd" clip-rule="evenodd" d="M8 10.4705L8.98558 9.48499C9.57547 8.89512 9.667 7.97088 9.20425 7.27678L7.1841 4.24663C6.57152 3.32778 5.27146 3.19906 4.49059 3.97993L4 4.47052L8 10.4705ZM20 20.4705L20.4819 19.9886C21.2673 19.2032 21.1378 17.8957 20.2137 17.2797L17.1937 15.2664C16.4996 14.8037 15.5754 14.8952 14.9856 15.4851L14 16.4706L20 20.4705Z" fill="#736AE4"/>
</svg>

<svg width="24" height="25" fill="none" xmlns="http://www.w3.org/2000/svg"><path d="m20.482 19.988-.482.483c-1.49 1.49-7 2-12.5-3.5s-5-11-3.5-12.5l.491-.491a1.75 1.75 0 0 1 2.693.267l2.02 3.03a1.75 1.75 0 0 1-.218 2.208l-1.049 1.049c-.268.268-.358.663-.183.999.319.613.984 1.676 2.246 2.938 1.262 1.262 2.325 1.927 2.938 2.246.336.174.731.085.999-.183l1.049-1.049a1.75 1.75 0 0 1 2.208-.218l3.02 2.013a1.76 1.76 0 0 1 .268 2.708Z" fill="#736AE4" fill-opacity=".25"/><path fill-rule="evenodd" clip-rule="evenodd" d="m8 10.47.986-.985a1.75 1.75 0 0 0 .218-2.208l-2.02-3.03a1.75 1.75 0 0 0-2.693-.267L4 4.47l4 6Zm12 10 .482-.481a1.76 1.76 0 0 0-.268-2.71l-3.02-2.013a1.75 1.75 0 0 0-2.208.22L14 16.47l6 4Z" fill="#736AE4"/></svg>
